X: 1
T:Fear A' Bhata
M:3/4
L:1/8
Q:80
C:Pt 1 arr. & Pt 2 Composed by M.K. Brennan
S:Slow air
K:HP
| {g}Bc/2{Gdc}d2{g}da|
{fg}f3/4e/4d{cd}c2{g}e2| |
{g}f3/2B/2{gBd}B2{g}Bd|  !
{cd}c3/2B/2{g}B/2A3/2{GdG}B2| |
{g}f3/2A/2{d}B2{GdG}B3/2{g}B/2|
{e}AB{Gdc}d2{g}ef| |  !
{ag}a3/2f/2{g}f2{gef}ed|
{g}d3/2c/2{e}B2{GdG}B2| |
{gfg}f3/2e/2{g}f2{g}B2|  !
{Gdc}d3/2c/2{gcd}c2{d}B2| |
{Gdc}d3/2e/2{gfg}f2{ag}a2|
{fg}f3/2e/2{Gdc}dc{g}B2| |  !
{Gdc}d3/2c/2{gcd}c2{e}B2|
{g}A3/2B/2{Gdc}d3/2e/2{gfg}f2| |
{ag}a2{fg}f3/2e/2{Gdc}d3/2c/2|  !
{gBd}B3/2{G}A/2B4|]
